source/img/tf-plus-percent.svg

<svg  fill="none" xmlns="http://www.w3.org/2000/svg">
<path d="M0.526367 49H110V407C110 408.657 108.657 410 107 410H3.52637C1.86951 410 0.526367 408.657 0.526367 407V49Z" fill="#AAF0D1"/>
<path d="M0.3479 30.9717C0.3479 29.3148 1.69105 27.9717 3.3479 27.9717H106.822C108.478 27.9717 109.822 29.3148 109.822 30.9717V339.972H0.3479V30.9717Z" fill="#FFF1F6"/>
<path d="M0.526367 15.3013V30C0.526367 31.1046 1.4218 32 2.52637 32H108C109.105 32 110 31.1046 110 30V3.50073C110 1.95304 108.315 0.988688 106.961 1.73868C90.6262 10.7881 72.7348 15.6797 45.6843 7.5C26.1258 1.58578 18.5336 0.04381 1.28313 13.7393C0.809421 14.1153 0.526367 14.6965 0.526367 15.3013Z" fill="#FFF1F6"/>
</svg>

<svg fill="none" xmlns="http://www.w3.org/2000/svg"><path d="M.526 49H110v358a3 3 0 01-3 3H3.526a3 3 0 01-3-3V49z" fill="#AAF0D1"/><path d="M.348 30.972a3 3 0 013-3h103.474a3 3 0 013 3v309H.348v-309z" fill="#FFF1F6"/><path d="M.526 15.301V30a2 2 0 002 2H108a2 2 0 002-2V3.5c0-1.547-1.685-2.511-3.039-1.761-16.335 9.05-34.226 13.94-61.277 5.761-19.558-5.914-27.15-7.456-44.4 6.24a2.007 2.007 0 00-.759 1.56z" fill="#FFF1F6"/></svg>
